X:1
L:1/8
Q:1/8=160
M:6/8
K:D
 B | AFA DFE | DEF A2 d | BGG dGG | BGG BAd | AFA DFE | DEF A2 B | def gfe | fdB BA :| G | 
 A2 d fdd | edd fdd | Add fdd | edB BAF | A2 d fdf | ede fdd | faf g2 e | fdB BA :| 
""^last time"" fdB AGE | D6 ||
